src/assets/filled/DocumentSketch.svg

<svg width="24" height="24" viewBox="0 0 24 24"  xmlns="http://www.w3.org/2000/svg">
<path d="M20.5 10.19H17.61C15.24 10.19 13.31 8.26 13.31 5.89V3C13.31 2.45 12.86 2 12.31 2H8.07C4.99 2 2.5 4 2.5 7.57V16.43C2.5 20 4.99 22 8.07 22H15.93C19.01 22 21.5 20 21.5 16.43V11.19C21.5 10.64 21.05 10.19 20.5 10.19ZM12.4 15.58L10.54 17.44C10.31 17.67 9.99 17.8 9.65 17.8C9.31 17.8 9 17.67 8.76 17.44L6.9 15.58C6.49 15.17 6.42 14.48 6.75 14L7.6 12.72C7.81 12.39 8.25 12.16 8.64 12.16H10.65C11.04 12.16 11.47 12.39 11.69 12.72L12.55 14C12.86 14.48 12.8 15.17 12.4 15.58Z" />
<path d="M17.4299 8.81048C18.3799 8.82048 19.6999 8.82048 20.8299 8.82048C21.3999 8.82048 21.6999 8.15048 21.2999 7.75048C19.8599 6.30048 17.2799 3.69048 15.7999 2.21048C15.3899 1.80048 14.6799 2.08048 14.6799 2.65048V6.14048C14.6799 7.60048 15.9199 8.81048 17.4299 8.81048Z" />
</svg>

<?xml version="1.0" encoding="UTF-8"?>
<svg width="24" height="24" viewBox="0 0 24 24" xmlns="http://www.w3.org/2000/svg">
 <path d="m20.5 10.19h-2.89c-2.37 0-4.3-1.93-4.3-4.3v-2.89c0-0.55-0.45-1-1-1h-4.24c-3.08 0-5.57 2-5.57 5.57v8.86c0 3.57 2.49 5.57 5.57 5.57h7.86c3.08 0 5.57-2 5.57-5.57v-5.24c0-0.55-0.45-1-1-1zm-8.1 5.39-1.86 1.86c-0.23 0.23-0.55 0.36-0.89 0.36s-0.65-0.13-0.89-0.36l-1.86-1.86c-0.41-0.41-0.48-1.1-0.15-1.58l0.85-1.28c0.21-0.33 0.65-0.56 1.04-0.56h2.01c0.39 0 0.82 0.23 1.04 0.56l0.86 1.28c0.31 0.48 0.25 1.17-0.15 1.58z"/>
 <path d="m17.43 8.8105c0.95 0.01 2.27 0.01 3.4 0.01 0.57 0 0.87-0.67 0.47-1.07-1.44-1.45-4.02-4.06-5.5-5.54-0.41-0.41-1.12-0.13-1.12 0.44v3.49c0 1.46 1.24 2.67 2.75 2.67z"/>
</svg>
